styles/2/Numix/22/places/brown-folder-templates.svg

<?xml version="1.0" encoding="UTF-8" standalone="no"?>
<svg
   xmlns:dc="http://purl.org/dc/elements/1.1/"
   xmlns:cc="http://creativecommons.org/ns#"
   xmlns:rdf="http://www.w3.org/1999/02/22-rdf-syntax-ns#"
   xmlns:svg="http://www.w3.org/2000/svg"
   xmlns="http://www.w3.org/2000/svg"
   xmlns:sodipodi="http://sodipodi.sourceforge.net/DTD/sodipodi-0.dtd"
   xmlns:inkscape="http://www.inkscape.org/namespaces/inkscape"
   width="22"
   height="22"
   viewBox="0 0 22 22"
   id="svg3071"
   version="1.1"
   inkscape:version="0.91 r"
   sodipodi:docname="brown-folder-templates.svg">
  <metadata
     id="metadata3085">
    <rdf:RDF>
      <cc:Work
         rdf:about="">
        <dc:format>image/svg+xml</dc:format>
        <dc:type
           rdf:resource="http://purl.org/dc/dcmitype/StillImage" />
      </cc:Work>
    </rdf:RDF>
  </metadata>
  <defs
     id="defs3083" />
  <sodipodi:namedview
     pagecolor="#ffffff"
     bordercolor="#666666"
     borderopacity="1"
     objecttolerance="10"
     gridtolerance="10"
     guidetolerance="10"
     inkscape:pageopacity="0"
     inkscape:pageshadow="2"
     inkscape:window-width="1280"
     inkscape:window-height="998"
     id="namedview3081"
     showgrid="true"
     inkscape:zoom="30.341309"
     inkscape:cx="6.5714087"
     inkscape:cy="9.8845709"
     inkscape:window-x="0"
     inkscape:window-y="0"
     inkscape:window-maximized="1"
     inkscape:current-layer="svg3071">
    <inkscape:grid
       type="xygrid"
       id="grid6013" />
  </sodipodi:namedview>
  <path
     style="font-size:medium;font-style:normal;font-variant:normal;font-weight:normal;font-stretch:normal;text-indent:0;text-align:start;text-decoration:none;line-height:normal;letter-spacing:normal;word-spacing:normal;text-transform:none;direction:ltr;block-progression:tb;writing-mode:lr-tb;text-anchor:start;baseline-shift:baseline;color:#000000;fill:#8d6e63;fill-opacity:1;fill-rule:nonzero;stroke:none;stroke-width:1.03313816;marker:none;visibility:visible;display:inline;overflow:visible;enable-background:accumulate;font-family:Sans;-inkscape-font-specification:Sans"
     d="m 3.0000115,2.0000005 c -0.5473306,0 -1,0.4096882 -1,1 l 0,1 -1,0 c -0.50192724,0 -0.999999944444,0.3847489 -0.999999944444,1 -1.53000004e-5,4.5937493 0,9.4062495 0,13.9999995 0,0.545771 0.493417304444,1 0.999999944444,1 l 20.0000005,0 c 0.515688,0 1,-0.437034 1,-1 l 0,-12.9999995 c 0,-0.5770209 -0.423105,-1 -1,-1 l -2,0 0,-2 c 0,-0.4874255 -0.401824,-1 -1,-1 z"
     id="path2995"
     inkscape:connector-curvature="0"
     sodipodi:nodetypes="ccccccssssscssc" />
  <path
     style="font-size:medium;font-style:normal;font-variant:normal;font-weight:normal;font-stretch:normal;text-indent:0;text-align:start;text-decoration:none;line-height:normal;letter-spacing:normal;word-spacing:normal;text-transform:none;direction:ltr;block-progression:tb;writing-mode:lr-tb;text-anchor:start;baseline-shift:baseline;color:#000000;fill:#000000;fill-opacity:0.32156863;fill-rule:nonzero;stroke:none;stroke-width:1.03313816;marker:none;visibility:visible;display:inline;overflow:visible;enable-background:accumulate;font-family:Sans;-inkscape-font-specification:Sans"
     d="m 3.0000115,2.0000005 c -0.5444543,0 -1,0.3988699 -1,1 l 0,1 -1,0 c -0.50675944,0 -0.999999944444,0.3964676 -0.999999944444,1 -2.6e-5,4.5937491 0,9.4062495 0,13.9999995 0,0.487177 0.419198504444,1 0.999999944444,1 l 20.0000005,0 c 0.521212,0 1,-0.442558 1,-1 l 0,-12.9999995 c 0,-0.5731146 -0.393904,-1 -1,-1 l -2,0 0,-2 c 0,-0.5585119 -0.457433,-1 -1,-1 z m 10.0000005,3 0,1 8,0 0,12.9999995 -20.0000005,0 0,-13.9999995 z"
     id="path3786"
     inkscape:connector-curvature="0"
     sodipodi:nodetypes="ssccccssssscsssccccccc" />
  <path
     style="opacity:1;fill:#000000;fill-opacity:0.32156864000000002;stroke:none"
     d="M 7 8 C 6.446 8 6 8.446 6 9 L 6 10 L 8 10 L 8 8 L 7 8 z M 10 8 L 10 10 L 12 10 L 12 8 L 10 8 z M 14 8 L 14 10 L 16 10 L 16 9 C 16 8.446 15.554 8 15 8 L 14 8 z M 6 12 L 6 14 L 8 14 L 8 12 L 6 12 z M 14 12 L 14 14 L 16 14 L 16 12 L 14 12 z M 6 16 L 6 17 C 6 17.554 6.446 18 7 18 L 8 18 L 8 16 L 6 16 z M 10 16 L 10 18 L 12 18 L 12 16 L 10 16 z M 14 16 L 14 18 L 15 18 C 15.554 18 16 17.554 16 17 L 16 16 L 14 16 z "
     id="path3881" />
</svg>

<svg xmlns="http://www.w3.org/2000/svg" viewBox="0 0 22 22">
 <path d="m 3 2 c -0.547 0 -1 0.41 -1 1 l 0 1 -1 0 c -0.502 0 -1 0.385 -1 1 0 4.594 0 9.406 0 14 0 0.546 0.493 1 1 1 l 20 0 c 0.516 0 1 -0.437 1 -1 l 0 -13 c 0 -0.577 -0.423 -1 -1 -1 l -2 0 0 -2 c 0 -0.487 -0.402 -1 -1 -1 z" style="visibility:visible;fill:#8d6e63;fill-opacity:1;stroke:none;display:inline;color:#000;fill-rule:nonzero"/>
 <path d="m 3 2 c -0.544 0 -1 0.399 -1 1 l 0 1 -1 0 c -0.507 0 -1 0.396 -1 1 0 4.594 0 9.406 0 14 0 0.487 0.419 1 1 1 l 20 0 c 0.521 0 1 -0.443 1 -1 l 0 -13 c 0 -0.573 -0.394 -1 -1 -1 l -2 0 0 -2 c 0 -0.559 -0.457 -1 -1 -1 z m 10 3 0 1 8 0 0 13 -20 0 0 -14 z" style="visibility:visible;fill:#000;fill-opacity:0.322;stroke:none;display:inline;color:#000;fill-rule:nonzero"/>
 <path d="m 7 8 c -0.554 0 -1 0.446 -1 1 l 0 1 l 2 0 l 0 -2 l -1 0 z m 3 0 l 0 2 l 2 0 l 0 -2 l -2 0 z m 4 0 l 0 2 l 2 0 l 0 -1 c 0 -0.554 -0.446 -1 -1 -1 l -1 0 z m -8 4 l 0 2 l 2 0 l 0 -2 l -2 0 z m 8 0 l 0 2 l 2 0 l 0 -2 l -2 0 z m -8 4 l 0 1 c 0 0.554 0.446 1 1 1 l 1 0 l 0 -2 l -2 0 z m 4 0 l 0 2 l 2 0 l 0 -2 l -2 0 z m 4 0 l 0 2 l 1 0 c 0.554 0 1 -0.446 1 -1 l 0 -1 l -2 0 z" style="fill:#000;opacity:1;fill-opacity:0.322;stroke:none"/>
</svg>
